X:23014
T:White Cockade, The
R:March
C:Trad.
O:Scotland
Z:Paul Hardy's Session Tunebook 2015 (see www.paulhardy.net). Creative Commons cc by-nc-sa licenced.
M:2/2
L:1/8
Q:1/2=100
K:G
GA|"G"B2B2 B2AG|B2B2 B2g2|d2B2 "Em"cBAG|"Am"B2A2 "D7"A2GA|
"G"B2B2 cBAG|B2d2 "Em"g3a|"C"bagf "D7"agfe|"G"d2B2 B2:|
|:Bc|"G"d2B2 g2Bc|d2d2 "D7"d3e|"G"d2B2 "Em"g2fg|"Am"a2A2 "D7"A2GA|
"G"B2B2 cBAG|B2d2 "Em"g3a|"C"bagf "D7"agfe|"G"d2B2 B2:|

